X:47
T:Day After the Fair, The    
B:CRE1.053 (La i ndiaidh an Aonaigh)
F:file ID: cre.1/047day_after
S:John Kelly
M:6/8
Q:160
R:jig
K:Em
BEE BEE|BEE EFG|AFD AFD|AFD DEF|
GFG ABA|BAB g2f|edc BcA|BGE EFG:|
B3 B3|BGE EFG|AAA A3|AFD DEF|
AG/F/G AGA|BAB g2f|edc BcA|BEE E3:|

%%%

